X:1
T:The Campbells are Coming
M:6/8
L:1/8
Q:80
C:
S:March 6/8
K:HP
G | \
{d}G3/2B/2e{g}d3/2B/2G | \
{gBd}B2{G}B{gBd}B2{e}G | \
{d}G3/2B/2e{g}d3/2B/2G |
{gAd}A2{d}A{gAd}A2{e}G | \
{d}G3/2B/2e{g}d3/2B/2G | \
{gBd}B2{G}B{gBd}B2{e}G |
{d}G3/2B/2e{g}d3/2B/2G | \
{gBd}B2{e}G{gGd}G3|]
{g}f3/2e/2d{g}f3/2e/2d |
{gef}e2{A}e{gef}e2{g}c | \
{g}e3/2d/2c{g}e3/2d/2c | \
{gde}d2{c}d{gdG}d3 |
{g}f3/2e/2d{g}f3/2e/2d | \
{gef}e2{A}e{gef}e2{g}c | \
{g}e3/2d/2c{g}e3/2d/2c |
{gde}d2{c}d{gdG}d2{g}G|]
{d}G3/2B/2e{g}d3/2B/2G | \
{gBd}B2{G}B{gBd}B2{e}G |
{d}G3/2B/2e{g}d3/2B/2G | \
{gAd}A2{d}A{gAd}A2{e}G | \
{d}G3/2B/2e{g}d3/2B/2G |
{gBd}B2{G}B{gBd}B2{e}G | \
{d}G3/2B/2e{g}d3/2B/2G | \
{gBd}B2{e}G{gGd}G2|]
